images/icons/PBS-refresh.svg

<?xml version="1.0" encoding="UTF-8" standalone="no"?>
<svg width="256px" height="256px" viewBox="0 0 256 256" version="1.1" xmlns="http://www.w3.org/2000/svg" xmlns:xlink="http://www.w3.org/1999/xlink">
    <!-- Generator: Sketch 39.1 (31720) - http://www.bohemiancoding.com/sketch -->
    <title>PBS-refresh</title>
    <desc>Created with Sketch.</desc>
    <defs></defs>
    <g id="Page-1" stroke="none" stroke-width="1" fill="none" fill-rule="evenodd">
        <g id="PBS-refresh" fill="#222222">
            <path d="M212.037142,130.410499 C212.037142,130.410499 212.42051,130.649236 212.42051,132.048931 C211.020815,154.910608 202.622648,173.573202 186.759443,188.503277 C171.362803,203.433352 152.233645,211.364954 128.905403,211.831519 C117.241282,211.831519 106.043726,209.498695 95.779299,205.299611 C85.5148725,201.100528 76.6501405,195.035185 69.185103,187.103582 L83.1820483,173.106637 C88.7808264,179.17198 95.779299,184.304193 103.710901,187.570147 C111.642504,190.836101 120.040671,192.70236 129.371968,193.168925 C146.634867,192.70236 161.564942,186.637017 173.229063,175.439461 C184.893184,164.241905 191.425092,149.778395 192.824786,132.515496 C192.824786,132.048931 192.824786,131.115801 193.291351,130.649236 C193.757916,130.182671 194.691046,129.716107 196.09074,129.716107 C196.09074,129.716107 209.560071,129.672815 210.55425,129.716107 C211.54843,129.759399 212.037142,130.410499 212.037142,130.410499 Z M186.759443,68.1295474 L174.162193,82.1264927 C168.09685,76.0611497 161.564942,70.9289365 153.633339,67.6629826 C145.701737,64.3970287 137.30357,62.5307693 127.972273,62.0642045 C110.709374,62.5307693 95.779299,68.5961123 84.1151779,79.7936685 C71.984492,90.9912247 65.4525842,105.454735 64.5194545,122.717634 C64.5194545,123.184199 64.5194545,124.117329 64.0528897,124.583893 C63.5863249,125.050458 62.6531952,125.517023 61.2535007,125.517023 L47.2565554,125.517023 C47.2565554,125.517023 46.7899905,125.517023 46.3234257,125.050458 C45.8568608,124.583893 45.390296,123.650764 45.390296,122.251069 C46.7899905,99.8559567 55.1881577,80.7267982 71.0513623,65.7967232 C86.4480021,50.8666482 106.043726,42.9350459 128.905403,42.4684811 C139.169829,43.4016108 150.367386,45.2678701 160.165247,49.9335186 C170.429674,54.1326021 179.294406,60.1979451 186.759443,68.1295474 Z" id="Fill-1"></path>
            <path d="M195.54269,67.6583959 L221.620015,107.026358 C222.226978,107.942667 221.818463,108.685482 220.713342,108.685482 L168.833506,108.685482 C167.725802,108.685482 167.322725,107.938358 167.926834,107.026358 L194.004159,67.6583959 C194.429013,67.0170105 195.116678,67.0152618 195.54269,67.6583959 Z" id="Triangle-2" transform="translate(194.773794, 87.931091) rotate(-226.000000) translate(-194.773794, -87.931091) "></path>
            <path d="M62.5426896,145.658396 L88.6200149,185.026358 C89.2269776,185.942667 88.8184632,186.685482 87.7133424,186.685482 L35.8335062,186.685482 C34.7258021,186.685482 34.3227255,185.938358 34.9268338,185.026358 L61.0041591,145.658396 C61.4290126,145.017011 62.1166777,145.015262 62.5426896,145.658396 Z" id="Triangle-2" transform="translate(61.773794, 165.931091) scale(1, -1) rotate(-135.000000) translate(-61.773794, -165.931091) "></path>
        </g>
    </g>
</svg>

<svg width="256" height="256" viewBox="0 0 256 256" xmlns="http://www.w3.org/2000/svg"><title>PBS-refresh</title><g fill="#222" fill-rule="evenodd"><path d="M212.037 130.41s.384.24.384 1.639c-1.4 22.862-9.798 41.524-25.662 56.454-15.396 14.93-34.525 22.862-57.854 23.329A87.36 87.36 0 0 1 95.78 205.3c-10.264-4.2-19.129-10.265-26.594-18.196l13.997-13.997c5.599 6.065 12.597 11.197 20.529 14.463s16.33 5.132 25.661 5.599c17.263-.467 32.193-6.532 43.857-17.73 11.664-11.197 18.196-25.66 19.596-42.924 0-.466 0-1.4.466-1.866.467-.466 1.4-.933 2.8-.933 0 0 13.47-.043 14.463 0 .994.043 1.483.694 1.483.694zM186.76 68.13l-12.597 13.996c-6.065-6.065-12.597-11.197-20.529-14.463-7.931-3.266-16.33-5.132-25.66-5.599-17.264.467-32.194 6.532-43.858 17.73-12.13 11.197-18.662 25.66-19.596 42.924 0 .466 0 1.4-.466 1.866-.467.466-1.4.933-2.8.933H47.258s-.467 0-.934-.467c-.466-.466-.933-1.4-.933-2.799 1.4-22.395 9.798-41.524 25.661-56.454 15.397-14.93 34.993-22.862 57.854-23.329 10.265.934 21.462 2.8 31.26 7.466 10.265 4.199 19.13 10.264 26.594 18.196z"/><path d="M208.823 102.567l-46.434-8.589c-1.08-.2-1.331-1.01-.564-1.805l36.039-37.319c.77-.797 1.587-.568 1.823.5l10.204 46.106c.167.751-.31 1.247-1.068 1.107zM46.895 152.14l9.398 46.277c.219 1.077 1.033 1.313 1.814.532l36.685-36.685c.783-.783.54-1.596-.532-1.814l-46.277-9.398c-.754-.153-1.241.332-1.088 1.088z"/></g></svg>
